assets/martial_arts_uniform_flat.svg

<svg width="32" height="32" viewBox="0 0 32 32" fill="none" xmlns="http://www.w3.org/2000/svg">
<path d="M9.61521 5C8.99903 5 8.41013 5.19383 7.92471 5.53533C7.58497 5.77437 7.29365 6.08722 7.07909 6.45918L1.27175 16.515L1.27039 16.5173C0.707389 17.4845 1.05594 18.7107 2.0018 19.2619L2.00601 19.2643L5.71179 21.3999L5.71415 21.4013C6.28296 21.7317 6.94169 21.7475 7.50001 21.5119V26.3406C7.50001 27.2834 8.27402 28 9.16523 28H22.8452C23.7868 28 24.5 27.2331 24.5 26.3406L24.5001 21.5117C25.0583 21.7474 25.717 21.7318 26.2858 21.4016L26.2888 21.3999L30.017 19.2572L30.0301 19.2492C30.6217 18.8845 30.9733 18.2573 30.9993 17.5951C31.0137 17.2282 30.928 16.8531 30.7333 16.5127L24.923 6.46165C24.7078 6.08368 24.4151 5.76906 24.0738 5.52993C23.5847 5.1872 22.9957 5 22.3852 5H9.61521Z" fill="#9B9B9B"/>
<path d="M8.49992 26.3406C8.49992 26.7103 8.80514 27 9.16514 27H22.8451C23.2151 27 23.4999 26.7003 23.4999 26.3406V18.5743L25.6496 13.6117L23.4999 6.34891C23.1795 6.12444 22.791 6 22.3851 6H21.4541L15.986 9.89682L10.5657 6H9.61512C9.20909 6 8.82037 6.12801 8.49992 6.35348L6.8667 13.8484L8.49992 18.5936V26.3406Z" fill="#F4F4F4"/>
<path d="M12.4375 6L15.9999 10.748L19.5622 6H21.4963L16.7293 16.13H14.7952L15.0328 15.625L10.5034 6H12.4375Z" fill="#D3D3D3"/>
<path d="M16 13.57L12.4376 6H19.5624L16 13.57Z" fill="#635994"/>
<path d="M15.9082 17.875L13.7917 22.3726C13.586 22.8098 13.0647 22.9975 12.6274 22.7917C12.1902 22.586 12.0025 22.0647 12.2083 21.6274L13.9741 17.875H9.16C8.79549 17.875 8.5 17.5795 8.5 17.215V16.785C8.5 16.4205 8.79549 16.125 9.16 16.125H22.84C23.2045 16.125 23.5 16.4205 23.5 16.785V17.215C23.5 17.5795 23.2045 17.875 22.84 17.875H18.0259L19.7917 21.6274C19.9975 22.0647 19.8098 22.586 19.3726 22.7917C18.9353 22.9975 18.414 22.8098 18.2083 22.3726L16.0918 17.875H15.9082Z" fill="#635994"/>
<path d="M29.8652 17.0095L24.0552 6.95908C23.9152 6.71223 23.7243 6.50603 23.5 6.34888V18.6079L24.4052 20.1665C24.6852 20.646 25.3052 20.8159 25.7852 20.5361L29.5052 18.3982C29.8085 18.2112 29.9868 17.8912 30 17.5561C30.0072 17.3719 29.9645 17.1832 29.8652 17.0095Z" fill="#D3D3D3"/>
<path d="M7.59521 20.1665L8.5 18.598V6.35345C8.27588 6.51114 8.08515 6.7165 7.94522 6.95908L2.13522 17.0195C1.85522 17.499 2.02522 18.1184 2.50522 18.3982L6.21521 20.5361C6.69521 20.8159 7.31521 20.646 7.59521 20.1665Z" fill="#D3D3D3"/>
</svg>

<svg width="32" height="32" fill="none" xmlns="http://www.w3.org/2000/svg"><path d="M9.615 5A2.94 2.94 0 0 0 7.08 6.46L1.272 16.514l-.002.002a2.012 2.012 0 0 0 .732 2.745l.004.002L5.712 21.4l.002.001c.569.33 1.228.346 1.786.11v4.83c0 .942.774 1.659 1.665 1.659h13.68c.942 0 1.655-.767 1.655-1.66v-4.828c.558.235 1.217.22 1.786-.11l.003-.002 3.728-2.143.013-.008c.592-.364.943-.992.97-1.654a2.017 2.017 0 0 0-.267-1.082l-5.81-10.051a2.872 2.872 0 0 0-.85-.932A2.941 2.941 0 0 0 22.386 5H9.615Z" fill="#9B9B9B"/><path d="M8.5 26.34c0 .37.305.66.665.66h13.68c.37 0 .655-.3.655-.66v-7.766l2.15-4.962-2.15-7.263A1.942 1.942 0 0 0 22.385 6h-.93l-5.469 3.897L10.566 6h-.95a1.94 1.94 0 0 0-1.116.353l-1.633 7.495L8.5 18.594v7.747Z" fill="#F4F4F4"/><path d="M12.438 6 16 10.748 19.562 6h1.934L16.73 16.13h-1.934l.238-.505L10.503 6h1.934Z" fill="#D3D3D3"/><path d="M16 13.57 12.438 6h7.124L16 13.57ZM15.908 17.875l-2.116 4.498a.875.875 0 1 1-1.584-.746l1.766-3.752H9.16a.66.66 0 0 1-.66-.66v-.43a.66.66 0 0 1 .66-.66h13.68a.66.66 0 0 1 .66.66v.43a.66.66 0 0 1-.66.66h-4.814l1.766 3.752a.875.875 0 1 1-1.584.746l-2.116-4.498h-.184Z" fill="#635994"/><path d="m29.865 17.01-5.81-10.05a1.872 1.872 0 0 0-.555-.611v12.259l.905 1.558c.28.48.9.65 1.38.37l3.72-2.138c.303-.187.482-.507.495-.842a1.017 1.017 0 0 0-.135-.547ZM7.595 20.166l.905-1.568V6.353a1.905 1.905 0 0 0-.555.606l-5.81 10.06c-.28.48-.11 1.1.37 1.38l3.71 2.137c.48.28 1.1.11 1.38-.37Z" fill="#D3D3D3"/></svg>
